logos/p5js.svg

<?xml version="1.0" encoding="UTF-8"?>
<svg width="512px" height="237px" viewBox="0 0 512 237" version="1.1" xmlns="http://www.w3.org/2000/svg" preserveAspectRatio="xMidYMid">
    <title>p5.js</title>
    <g>
        <path d="M28.6968989,56.8984111 L28.6968989,73.6161471 L29.4472949,73.6161471 C30.9418162,71.2897105 32.8961902,68.9172886 35.3104169,66.5051521 C37.7204631,64.0930157 40.6760619,61.931708 44.1709424,60.0149583 C47.6637327,58.1086598 51.6142855,56.5242582 56.024691,55.274295 C60.4288257,54.0285122 65.3826935,53.4014403 70.8716626,53.4014403 C79.3580352,53.4014403 87.1755311,55.0255564 94.3304212,58.267518 C101.483221,61.5178405 107.641067,65.9679605 112.799778,71.6220586 C117.954309,77.2803371 121.946666,83.9356598 124.776851,91.5859366 C127.604945,99.2403939 129.020037,107.475938 129.020037,116.292568 C129.020037,125.109199 127.64675,133.386547 124.900175,141.122524 C122.15778,148.858501 118.242762,155.595343 113.171841,161.335141 C108.094649,167.074938 101.943074,171.656743 94.704574,175.059653 C87.4660744,178.468834 79.2702451,180.17447 70.1233568,180.17447 C61.6369842,180.17447 53.8592028,178.427029 46.7900126,174.936329 C39.7145517,171.441449 34.2694776,166.702876 30.4443392,160.708069 L29.9468622,160.708069 L29.9468622,236.573314 L0,236.573314 L0,56.8984111 L28.6968989,56.8984111 Z M98.5736075,116.290478 C98.5736075,111.631334 97.8650162,107.013995 96.4520143,102.43846 C95.0348319,97.8650162 92.915329,93.7472443 90.0872348,90.0851446 C87.2570505,86.4314058 83.6827408,83.4758071 79.3559449,81.2267093 C75.029149,78.9817921 69.9561376,77.8593334 64.1348205,77.8593334 C58.6437611,77.8593334 53.7337884,79.0235968 49.411173,81.354214 C45.0843771,83.6848311 41.3804726,86.6822346 38.3057302,90.3359733 C35.2247171,93.9980731 32.8982805,98.1576498 31.3180593,102.816794 C29.7336578,107.475938 28.9477277,112.137172 28.9477277,116.792135 C28.9477277,121.451279 29.7336578,126.068619 31.3180593,130.639973 C32.8982805,135.219687 35.2247171,139.335369 38.3057302,142.997469 C41.3825628,146.655388 45.0843771,149.610987 49.411173,151.851724 C53.7337884,154.100821 58.6437611,155.2191 64.1348205,155.2191 C69.9561376,155.2191 75.029149,154.059017 79.3559449,151.728399 C83.6806506,149.397782 87.2570505,146.404559 90.0872348,142.74246 C92.915329,139.08454 95.0348319,134.924964 96.4520143,130.26582 C97.8650162,125.606676 98.5736075,120.947532 98.5736075,116.290478 Z M390.473472,51.1753352 L390.473472,183.918089 C390.473472,191.070889 389.890295,197.851626 388.726032,204.25612 C387.557588,210.660614 385.358656,216.233192 382.112514,220.978036 C378.870552,225.72288 374.458056,229.502033 368.885478,232.332217 C363.308719,235.162402 356.034685,236.573314 347.048745,236.573314 C344.555089,236.573314 342.059343,236.406094 339.561507,236.075837 C337.067851,235.741398 335.071672,235.40696 333.572971,235.074612 L336.070807,209.619674 C337.402289,209.954113 338.813201,210.202851 340.311903,210.37007 C341.810605,210.533109 343.137907,210.618809 344.30426,210.618809 C347.794961,210.618809 350.623055,209.954113 352.788543,208.62263 C354.94776,207.286967 356.613681,205.458007 357.782125,203.131571 C358.942208,200.800954 359.692604,198.098274 360.027042,195.019351 C360.3573,191.940428 360.524519,188.658752 360.524519,185.163872 L360.524519,51.1753352 L390.473472,51.1753352 Z M315.699332,132.751115 L315.699,151.344 L333.533256,145.961429 L337.036498,156.738704 L319.273642,162.796218 L330.299655,178.43121 L321.00436,185.174323 L309.39726,169.815242 L298.093244,184.768816 L289.0655,177.894018 L300.091513,162.796218 L282.192792,156.337378 L285.698124,145.551742 L303.672094,151.343795 L303.672094,132.751115 L315.699332,132.751115 Z M492.53987,88.8393618 C489.874814,85.3444813 486.216895,82.3115437 481.557751,79.7321881 C476.898607,77.1528324 471.825596,75.8610644 466.334536,75.8610644 C461.508173,75.8610644 457.104038,76.8622891 453.111681,78.8584679 C449.115143,80.8504662 447.123145,84.1823081 447.123145,88.8393618 C447.123145,93.4964156 449.324167,96.7885429 453.732482,98.6948414 C458.140797,100.609501 464.591277,102.565965 473.075559,104.562144 C477.565393,105.563369 482.097033,106.892761 486.674657,108.554501 C491.252282,110.216242 495.411859,112.421445 499.155478,115.168019 C502.894916,117.910414 505.932035,121.323775 508.262652,125.399742 C510.589088,129.477799 511.757532,134.425396 511.757532,140.248804 C511.757532,147.573003 510.382155,153.770564 507.63767,158.841485 C504.895276,163.916586 501.233176,168.034358 496.655551,171.194801 C492.077927,174.355243 486.756177,176.644055 480.684031,178.057057 C474.609795,179.470059 468.334896,180.17656 461.842611,180.17656 C452.522233,180.17656 443.458955,178.470924 434.640234,175.061744 C425.821513,171.656743 418.501494,166.786485 412.680177,160.467691 L432.395317,141.998334 C435.722978,146.32513 440.045593,149.90153 445.373614,152.727534 C450.697454,155.557718 456.600291,156.96863 463.092575,156.96863 C465.251792,156.96863 467.456995,156.724072 469.706093,156.222415 C471.95101,155.724938 474.028708,154.936917 475.943368,153.854173 C477.853847,152.771429 479.392263,151.318713 480.560707,149.485572 C481.72079,147.652432 482.303967,145.411696 482.303967,142.74455 C482.303967,137.750968 480.017244,134.178748 475.445891,132.01535 C470.866176,129.851952 464.001829,127.688554 454.857031,125.527247 C450.363016,124.526022 445.994415,123.240525 441.751229,121.656123 C437.510133,120.075902 433.724709,117.998204 430.397048,115.418848 C427.065206,112.839492 424.408511,109.641426 422.412332,105.807927 C420.416154,101.982788 419.414929,97.2421249 419.414929,91.5838464 C419.414929,84.9285236 420.786126,79.1929062 423.534791,74.3686333 C426.277185,69.5380897 429.899571,65.5958979 434.389405,62.5086141 C438.87924,59.4338717 443.954341,57.1450594 449.61262,55.6505381 C455.266718,54.1518363 461.092215,53.4014403 467.080752,53.4014403 C475.728073,53.4014403 484.174731,54.9001421 492.408185,57.8912749 C500.641638,60.8886784 507.169456,65.4683933 512,71.6199683 L492.53987,88.8393618 Z M254.091611,94.9512223 C251.012688,88.0513415 246.731878,82.2258439 241.240818,77.4830903 C235.751849,72.742427 229.30346,69.122132 221.901922,66.6284762 C214.496203,64.1348205 206.467593,62.8848572 197.820272,62.8848572 C194.65774,62.8848572 191.123145,63.0562568 187.214397,63.3823342 C183.303558,63.720953 179.936182,64.2999494 177.108088,65.133955 L178.853438,26.9494587 L250.975064,26.9494587 L250.975064,-2.84217094e-14 L150.405278,-2.84217094e-14 L147.409965,96.571158 C150.066659,95.2438558 153.105867,93.9959828 156.517138,92.8275389 C159.926319,91.6674559 163.419109,90.6265166 166.997599,89.713082 C170.573999,88.797557 174.236099,88.0931463 177.979718,87.5893986 C181.723337,87.0919216 185.255842,86.843183 188.585594,86.843183 C193.407776,86.843183 198.15053,87.3824648 202.809674,88.4631187 C207.466728,89.5458628 211.668109,91.4605222 215.411728,94.2029165 C219.155347,96.9453108 222.188285,100.567696 224.520992,105.057531 C226.847429,109.547365 228.013783,115.205644 228.013783,122.028186 C228.013783,127.352026 227.140062,132.136584 225.392622,136.37768 C223.647272,140.614596 221.27485,144.155462 218.283717,146.979375 C215.286314,149.81165 211.795614,151.972958 207.799076,153.467479 C203.806718,154.970361 199.565622,155.716577 195.071607,155.716577 C187.088982,155.716577 180.18074,153.592893 174.359423,149.351797 C168.533926,145.110701 164.378529,139.496318 161.880693,132.506556 L161.548345,132.629881 L139.876741,152.936558 C144.259974,160.085177 149.909891,166.065353 156.891291,170.814377 C167.037314,177.714258 179.513954,181.171514 194.325392,181.171514 C203.142022,181.171514 211.459085,179.754332 219.278671,176.930418 C227.096167,174.104414 233.918709,170.026357 239.742117,164.698336 C245.563434,159.378676 250.180773,152.846678 253.594134,145.110701 C257.001225,137.374724 258.706862,128.601989 258.706862,118.782044 C258.70895,109.798194 257.170534,101.859464 254.091611,94.9512223 Z" fill="#ED225D"></path>
    </g>
</svg>

<svg preserveAspectRatio="xMidYMid" viewBox="0 0 512 237" xmlns="http://www.w3.org/2000/svg">
  <path fill="#ED225D" d="M28.697 56.898v16.718h.75c1.495-2.326 3.45-4.699 5.863-7.11 2.41-2.413 5.366-4.574 8.86-6.491 3.494-1.906 7.444-3.49 11.855-4.74 4.404-1.246 9.358-1.874 14.847-1.874 8.486 0 16.304 1.625 23.458 4.867 7.153 3.25 13.311 7.7 18.47 13.354 5.154 5.658 9.147 12.314 11.977 19.964 2.828 7.654 4.243 15.89 4.243 24.707 0 8.816-1.373 17.094-4.12 24.83-2.742 7.736-6.657 14.472-11.728 20.212-5.077 5.74-11.229 10.322-18.467 13.725-7.239 3.409-15.435 5.114-24.582 5.114-8.486 0-16.264-1.747-23.333-5.238-7.075-3.495-12.52-8.233-16.346-14.228h-.497v75.865H0V56.898h28.697Zm69.877 59.392c0-4.659-.709-9.276-2.122-13.852-1.417-4.573-3.537-8.69-6.365-12.353-2.83-3.654-6.404-6.61-10.731-8.858-4.327-2.245-9.4-3.368-15.221-3.368-5.491 0-10.401 1.165-14.724 3.495-4.327 2.33-8.03 5.328-11.105 8.982-3.081 3.662-5.408 7.822-6.988 12.48-1.584 4.66-2.37 9.321-2.37 13.976 0 4.66.786 9.277 2.37 13.848 1.58 4.58 3.907 8.695 6.988 12.357 3.077 3.658 6.778 6.614 11.105 8.855 4.323 2.249 9.233 3.367 14.724 3.367 5.821 0 10.894-1.16 15.22-3.49 4.326-2.331 7.902-5.324 10.732-8.987 2.828-3.657 4.948-7.817 6.365-12.476 1.413-4.66 2.122-9.318 2.122-13.976Zm291.9-65.115v132.743c0 7.153-.584 13.934-1.748 20.338-1.168 6.405-3.367 11.977-6.613 16.722-3.242 4.745-7.655 8.524-13.228 11.354-5.576 2.83-12.85 4.241-21.836 4.241-2.494 0-4.99-.167-7.487-.497-2.494-.335-4.49-.669-5.989-1.001l2.498-25.455a31.95 31.95 0 0 0 4.24.75c1.5.163 2.827.249 3.993.249 3.491 0 6.32-.665 8.485-1.996 2.159-1.336 3.825-3.165 4.993-5.491 1.16-2.331 1.91-5.034 2.245-8.113.33-3.079.498-6.36.498-9.855V51.175h29.948Zm-74.775 81.576v18.593l17.834-5.383 3.503 10.778-17.762 6.057 11.026 15.635-9.296 6.743-11.607-15.359-11.304 14.954-9.028-6.875 11.027-15.098-17.9-6.459 3.506-10.785 17.974 5.792V132.75H315.7ZM492.54 88.84c-2.664-3.495-6.322-6.527-10.981-9.107-4.66-2.58-9.732-3.87-15.223-3.87-4.827 0-9.231 1-13.223 2.996-3.997 1.992-5.989 5.324-5.989 9.981s2.201 7.95 6.61 9.856c4.408 1.915 10.858 3.871 19.343 5.867a109.79 109.79 0 0 1 13.599 3.993c4.577 1.661 8.737 3.866 12.48 6.613 3.74 2.742 6.777 6.156 9.108 10.232 2.326 4.078 3.495 9.025 3.495 14.849 0 7.324-1.376 13.522-4.12 18.592-2.743 5.076-6.405 9.193-10.982 12.354-4.578 3.16-9.9 5.45-15.972 6.862-6.074 1.413-12.35 2.12-18.841 2.12-9.32 0-18.384-1.706-27.203-5.115-8.818-3.405-16.139-8.276-21.96-14.594l19.715-18.47c3.328 4.327 7.65 7.904 12.979 10.73 5.323 2.83 11.226 4.24 17.719 4.24 2.159 0 4.364-.244 6.613-.746 2.245-.497 4.323-1.285 6.237-2.368a12.963 12.963 0 0 0 4.618-4.368c1.16-1.834 1.743-4.074 1.743-6.741 0-4.994-2.287-8.566-6.858-10.73-4.58-2.163-11.444-4.326-20.589-6.488a98.871 98.871 0 0 1-13.106-3.87c-4.24-1.581-8.026-3.659-11.354-6.238-3.332-2.58-5.988-5.778-7.985-9.611-1.996-3.825-2.997-8.566-2.997-14.224 0-6.655 1.371-12.391 4.12-17.215 2.742-4.83 6.365-8.773 10.854-11.86 4.49-3.075 9.565-5.364 15.224-6.858 5.654-1.5 11.48-2.25 17.468-2.25 8.647 0 17.094 1.5 25.327 4.49C500.642 60.89 507.17 65.468 512 71.62l-19.46 17.22Zm-238.447 6.112c-3.08-6.9-7.36-12.725-12.851-17.468-5.49-4.74-11.938-8.36-19.34-10.855-7.405-2.493-15.433-3.743-24.08-3.743-3.163 0-6.698.171-10.607.497-3.91.339-7.278.918-10.106 1.752l1.745-38.185h72.122V0h-100.57l-2.995 96.571c2.657-1.327 5.696-2.575 9.107-3.743 3.41-1.16 6.902-2.201 10.48-3.115a95.726 95.726 0 0 1 10.983-2.124c3.743-.497 7.276-.746 10.606-.746 4.822 0 9.565.54 14.224 1.62 4.657 1.083 8.858 2.998 12.602 5.74 3.743 2.742 6.776 6.365 9.109 10.855 2.326 4.49 3.493 10.148 3.493 16.97 0 5.324-.874 10.109-2.621 14.35-1.746 4.237-4.118 7.777-7.11 10.601-2.997 2.833-6.487 4.994-10.484 6.488-3.992 1.503-8.233 2.25-12.727 2.25-7.983 0-14.891-2.124-20.713-6.365-5.825-4.241-9.98-9.856-12.478-16.845l-.333.123-21.671 20.307c4.383 7.148 10.033 13.128 17.014 17.877 10.146 6.9 22.623 10.358 37.434 10.358 8.817 0 17.134-1.418 24.954-4.242 7.817-2.826 14.64-6.904 20.463-12.232 5.821-5.32 10.439-11.851 13.852-19.587 3.407-7.736 5.113-16.509 5.113-26.329.002-8.984-1.536-16.923-4.615-23.83Z"/>
</svg>
